places/64/folder-drag-accept.svg

<?xml version="1.0" encoding="UTF-8" standalone="no"?>
<!-- Created with Inkscape (http://www.inkscape.org/) -->

<svg
   xmlns:dc="http://purl.org/dc/elements/1.1/"
   xmlns:cc="http://creativecommons.org/ns#"
   xmlns:rdf="http://www.w3.org/1999/02/22-rdf-syntax-ns#"
   xmlns:svg="http://www.w3.org/2000/svg"
   xmlns="http://www.w3.org/2000/svg"
   xmlns:xlink="http://www.w3.org/1999/xlink"
   xmlns:inkscape="http://www.inkscape.org/namespaces/inkscape"
   version="1.0"
   width="64"
   height="64"
   id="svg3439">
  <metadata
     id="metadata53">
    <rdf:RDF>
      <cc:Work
         rdf:about="">
        <dc:format>image/svg+xml</dc:format>
        <dc:type
           rdf:resource="http://purl.org/dc/dcmitype/StillImage" />
      </cc:Work>
    </rdf:RDF>
  </metadata>
  <defs
     id="defs3441">
    <radialGradient
       cx="605.71429"
       cy="486.64789"
       r="117.14286"
       fx="605.71429"
       fy="486.64789"
       id="radialGradient2653"
       xlink:href="#linearGradient5060-820"
       gradientUnits="userSpaceOnUse"
       gradientTransform="matrix(0.04016195,0,0,0.0329426,33.795982,40.921317)" />
    <linearGradient
       id="linearGradient3484">
      <stop
         id="stop3486"
         style="stop-color:#bdbdbd;stop-opacity:1"
         offset="0" />
      <stop
         id="stop3488"
         style="stop-color:#d0d0d0;stop-opacity:1"
         offset="1" />
    </linearGradient>
    <radialGradient
       cx="2.9999998"
       cy="-17.82061"
       r="21"
       fx="2.9999998"
       fy="-17.82061"
       id="radialGradient2650"
       xlink:href="#linearGradient3484"
       gradientUnits="userSpaceOnUse"
       gradientTransform="matrix(-1.7093459e-8,2.2713251,-2.8951677,-1.9343515e-8,-48.593318,2.3972382)" />
    <linearGradient
       id="linearGradient6404">
      <stop
         id="stop6406"
         style="stop-color:#f9f9f9;stop-opacity:1"
         offset="0" />
      <stop
         id="stop6408"
         style="stop-color:#c9c9c9;stop-opacity:1"
         offset="1" />
    </linearGradient>
    <linearGradient
       x1="124.17267"
       y1="18.793392"
       x2="124.17267"
       y2="21.800926"
       id="linearGradient2648"
       xlink:href="#linearGradient6404"
       gradientUnits="userSpaceOnUse"
       gradientTransform="matrix(1.3407707,0,0,1.3249351,-134.0678,-1.3881028)" />
    <linearGradient
       id="linearGradient5048-585">
      <stop
         id="stop2667"
         style="stop-color:#000000;stop-opacity:0"
         offset="0" />
      <stop
         id="stop2669"
         style="stop-color:#000000;stop-opacity:1"
         offset="0.5" />
      <stop
         id="stop2671"
         style="stop-color:#000000;stop-opacity:0"
         offset="1" />
    </linearGradient>
    <linearGradient
       x1="302.85715"
       y1="366.64789"
       x2="302.85715"
       y2="609.50507"
       id="linearGradient2645"
       xlink:href="#linearGradient5048-585"
       gradientUnits="userSpaceOnUse"
       gradientTransform="matrix(0.1076923,0,0,0.03294117,-6.9230773,40.922188)" />
    <linearGradient
       id="linearGradient5060-820">
      <stop
         id="stop2681"
         style="stop-color:#000000;stop-opacity:1"
         offset="0" />
      <stop
         id="stop2683"
         style="stop-color:#000000;stop-opacity:0"
         offset="1" />
    </linearGradient>
    <radialGradient
       cx="605.71429"
       cy="486.64789"
       r="117.14286"
       fx="605.71429"
       fy="486.64789"
       id="radialGradient2642"
       xlink:href="#linearGradient5060-820"
       gradientUnits="userSpaceOnUse"
       gradientTransform="matrix(-0.04016195,0,0,0.0329426,30.204018,40.921317)" />
    <linearGradient
       id="linearGradient3390">
      <stop
         id="stop3392"
         style="stop-color:#425e7b;stop-opacity:1"
         offset="0" />
      <stop
         id="stop3394"
         style="stop-color:#7a91a7;stop-opacity:1"
         offset="1" />
    </linearGradient>
    <linearGradient
       x1="34.954498"
       y1="45.114197"
       x2="25.474075"
       y2="20.980713"
       id="linearGradient2667"
       xlink:href="#linearGradient3390"
       gradientUnits="userSpaceOnUse"
       gradientTransform="matrix(1.3300009,0,0,1.33,0.0668738,-1.6618835)" />
    <linearGradient
       id="linearGradient7012-661-145-733-759-865-745">
      <stop
         id="stop2699"
         style="stop-color:#9cbbd9;stop-opacity:1"
         offset="0" />
      <stop
         id="stop2701"
         style="stop-color:#5c82ab;stop-opacity:1"
         offset="1" />
    </linearGradient>
    <radialGradient
       cx="13.857143"
       cy="19.54422"
       r="24.097353"
       fx="13.857143"
       fy="19.54422"
       id="radialGradient2665"
       xlink:href="#linearGradient7012-661-145-733-759-865-745"
       gradientUnits="userSpaceOnUse"
       gradientTransform="matrix(1.9790569,0,0,1.0523761,-8.9271881,12.730247)" />
    <linearGradient
       id="linearGradient6129-963-697-142-998">
      <stop
         id="stop4661"
         style="stop-color:#000000;stop-opacity:0.498"
         offset="0" />
      <stop
         id="stop4663"
         style="stop-color:#000000;stop-opacity:0"
         offset="1" />
    </linearGradient>
    <linearGradient
       x1="22.934725"
       y1="49.629246"
       x2="22.809399"
       y2="36.657963"
       id="linearGradient2662"
       xlink:href="#linearGradient6129-963-697-142-998"
       gradientUnits="userSpaceOnUse"
       gradientTransform="matrix(1.5224421,0,0,1.0834583,-4.5386374,10.421775)" />
    <linearGradient
       id="linearGradient8265-821-176-38-919">
      <stop
         id="stop4667"
         style="stop-color:#ffffff;stop-opacity:1"
         offset="0" />
      <stop
         id="stop4669"
         style="stop-color:#ffffff;stop-opacity:0"
         offset="1" />
    </linearGradient>
    <linearGradient
       x1="13.079692"
       y1="20.730078"
       x2="16.36186"
       y2="32.979298"
       id="linearGradient2659"
       xlink:href="#linearGradient8265-821-176-38-919"
       gradientUnits="userSpaceOnUse"
       gradientTransform="matrix(1.5224421,0,0,1.0694461,-4.5386374,11.431539)" />
    <linearGradient
       id="linearGradient6087-437-184-795-110">
      <stop
         id="stop4655"
         style="stop-color:#ffffff;stop-opacity:1"
         offset="0" />
      <stop
         id="stop4657"
         style="stop-color:#ffffff;stop-opacity:0"
         offset="1" />
    </linearGradient>
    <radialGradient
       cx="7.2646537"
       cy="8.3021259"
       r="20.979567"
       fx="7.2646537"
       fy="8.3021259"
       id="radialGradient2656"
       xlink:href="#linearGradient6087-437-184-795-110"
       gradientUnits="userSpaceOnUse"
       gradientTransform="matrix(0,1.3117367,-2.1641299,0,35.145782,18.304585)" />
  </defs>
  <g
     id="layer1">
    <path
       d="m 58,52.999928 c 0,0 0,7.999907 0,7.999907 2.068242,0.01506 5,-1.792375 5,-4.000468 0,-2.208095 -2.308001,-3.999439 -5,-3.999439 z"
       inkscape:connector-curvature="0"
       id="path3411"
       style="opacity:0.3;fill:url(#radialGradient2653);fill-opacity:1;fill-rule:nonzero;stroke:none;stroke-width:1;marker:none;visibility:visible;display:inline;overflow:visible" />
    <path
       d="M 8,9.5001644 C 7.0849896,9.5103921 6.5,9.9563421 6.5,10.83345 L 6.5,13.5 c 0,0 -1.505998,0 -1.505998,0 C 3.999085,13.5 3.5,13.973582 3.5,14.842172 c 0.045615,13.719577 0,15.657827 0,15.657827 0,0 56.999998,-0.999999 56.999998,-0.999999 l 0,-14.5 c 0,-1.000069 -0.499946,-1.5 -1.499998,-1.5 L 28.64966,13.5 28.5,10.83345 C 28.5,9.9563421 28.275474,9.4899354 27.360464,9.5001644 L 8,9.5001644 z"
       inkscape:connector-curvature="0"
       id="path2558"
       style="fill:url(#linearGradient2648);fill-opacity:1;fill-rule:nonzero;stroke:url(#radialGradient2650);stroke-width:0.99999994;stroke-linecap:round;stroke-linejoin:round;stroke-miterlimit:4;stroke-opacity:1;stroke-dasharray:none;stroke-dashoffset:0;marker:none;visibility:visible;display:inline;overflow:visible;enable-background:accumulate" />
    <rect
       width="52"
       height="8"
       x="6"
       y="53"
       id="rect4173"
       style="opacity:0.3;fill:url(#linearGradient2645);fill-opacity:1;fill-rule:nonzero;stroke:none;stroke-width:1;marker:none;visibility:visible;display:inline;overflow:visible" />
    <path
       d="m 6,52.999928 c 0,0 0,7.999907 0,7.999907 -2.0682415,0.01506 -5,-1.792375 -5,-4.000468 0,-2.208095 2.308001,-3.999439 5,-3.999439 z"
       inkscape:connector-curvature="0"
       id="path5018"
       style="opacity:0.3;fill:url(#radialGradient2642);fill-opacity:1;fill-rule:nonzero;stroke:none;stroke-width:1;marker:none;visibility:visible;display:inline;overflow:visible" />
    <path
       d="m 1.4837942,27.633 c -1.42670123,0.13432 -0.66429949,1.001481 -0.77805048,1.782127 0.39961338,1.618569 2.62864308,25.847044 2.89840448,27.592921 0.4546422,1.048642 2.1205986,0.511631 3.1761977,0.644751 17.5474251,0 35.0948521,0 52.6422771,0 1.448876,-0.115817 0.846489,-1.528597 1.050306,-2.337136 0.08255,-1.176448 2.269734,-18.903624 2.898467,-26.892663 -0.334059,-1.03626 -1.978705,-0.79 -3.009792,-0.79 -18.738885,0 -40.138924,0 -58.8778098,0 l 0,0 z"
       inkscape:connector-curvature="0"
       id="path7314"
       style="fill:url(#radialGradient2665);fill-opacity:1;stroke:url(#linearGradient2667);stroke-width:1;stroke-linecap:round;stroke-linejoin:round;stroke-miterlimit:4;stroke-opacity:1;stroke-dasharray:none;stroke-dashoffset:0" />
    <path
       d="m 1.4784742,26.67365 61.0430518,4.39e-4 c 0.843433,0 1.38985,0.482802 1.38985,1.083037 l -2.985004,29.253357 c 0,0.600236 -0.679008,1.083458 -1.522439,1.083458 l -54.8079207,0 c -0.8434334,0 -1.5224427,-0.483222 -1.5224427,-1.083458 L 0.0886233,27.757109 c 0,-0.600237 0.54641757,-1.083459 1.3898509,-1.083459 l 0,0 z"
       inkscape:connector-curvature="0"
       id="path2541"
       style="opacity:0.4;fill:url(#linearGradient2662);fill-opacity:1;stroke:none" />
    <path
       d="m 1.4784742,27.067696 61.0430518,0 c 0.843433,0 1.38985,0.882996 1.38985,1.475471 l -0.6118,7.983877 L 0.99834392,44.279 0.0886233,28.542674 c 0,-0.592473 0.54641757,-1.474978 1.3898509,-1.474978 l 0,0 z"
       inkscape:connector-curvature="0"
       id="path8263"
       style="opacity:0.3;fill:url(#linearGradient2659);fill-opacity:1;stroke:none" />
    <path
       d="m 62.316394,28.463 c -17.996574,0 -42.753425,0 -60.75,0 0.2928449,1.187909 3.0631317,26.087933 3.4658559,28.045"
       inkscape:connector-curvature="0"
       id="path2544"
       style="opacity:0.4;fill:none;stroke:url(#radialGradient2656);stroke-width:1;stroke-linecap:round;stroke-linejoin:round;stroke-miterlimit:4;stroke-opacity:1;stroke-dasharray:none" />
  </g>
</svg>

<?xml version="1.0" encoding="UTF-8" standalone="no"?>
<!-- Created with Inkscape (http://www.inkscape.org/) -->
<svg
   xmlns:svg="http://www.w3.org/2000/svg"
   xmlns="http://www.w3.org/2000/svg"
   xmlns:xlink="http://www.w3.org/1999/xlink"
   version="1.0"
   width="64"
   height="64"
   id="svg3439">
  <defs
     id="defs3441">
    <radialGradient
       cx="605.71429"
       cy="486.64789"
       r="117.14286"
       fx="605.71429"
       fy="486.64789"
       id="radialGradient2653"
       xlink:href="#linearGradient5060-820"
       gradientUnits="userSpaceOnUse"
       gradientTransform="matrix(4.016195e-2,0,0,3.2942602e-2,33.795982,40.921317)" />
    <linearGradient
       id="linearGradient3484">
      <stop
         id="stop3486"
         style="stop-color:#bdbdbd;stop-opacity:1"
         offset="0" />
      <stop
         id="stop3488"
         style="stop-color:#d0d0d0;stop-opacity:1"
         offset="1" />
    </linearGradient>
    <radialGradient
       cx="2.9999998"
       cy="-17.82061"
       r="21"
       fx="2.9999998"
       fy="-17.82061"
       id="radialGradient2650"
       xlink:href="#linearGradient3484"
       gradientUnits="userSpaceOnUse"
       gradientTransform="matrix(-1.7093459e-8,2.2713251,-2.8951677,-1.9343515e-8,-48.593318,2.3972382)" />
    <linearGradient
       id="linearGradient6404">
      <stop
         id="stop6406"
         style="stop-color:#f9f9f9;stop-opacity:1"
         offset="0" />
      <stop
         id="stop6408"
         style="stop-color:#c9c9c9;stop-opacity:1"
         offset="1" />
    </linearGradient>
    <linearGradient
       x1="124.17267"
       y1="18.793392"
       x2="124.17267"
       y2="21.800926"
       id="linearGradient2648"
       xlink:href="#linearGradient6404"
       gradientUnits="userSpaceOnUse"
       gradientTransform="matrix(1.3407707,0,0,1.3249351,-134.0678,-1.3881028)" />
    <linearGradient
       id="linearGradient5048-585">
      <stop
         id="stop2667"
         style="stop-color:#000000;stop-opacity:0"
         offset="0" />
      <stop
         id="stop2669"
         style="stop-color:#000000;stop-opacity:1"
         offset="0.5" />
      <stop
         id="stop2671"
         style="stop-color:#000000;stop-opacity:0"
         offset="1" />
    </linearGradient>
    <linearGradient
       x1="302.85715"
       y1="366.64789"
       x2="302.85715"
       y2="609.50507"
       id="linearGradient2645"
       xlink:href="#linearGradient5048-585"
       gradientUnits="userSpaceOnUse"
       gradientTransform="matrix(0.1076923,0,0,3.2941173e-2,-6.9230773,40.922188)" />
    <linearGradient
       id="linearGradient5060-820">
      <stop
         id="stop2681"
         style="stop-color:#000000;stop-opacity:1"
         offset="0" />
      <stop
         id="stop2683"
         style="stop-color:#000000;stop-opacity:0"
         offset="1" />
    </linearGradient>
    <radialGradient
       cx="605.71429"
       cy="486.64789"
       r="117.14286"
       fx="605.71429"
       fy="486.64789"
       id="radialGradient2642"
       xlink:href="#linearGradient5060-820"
       gradientUnits="userSpaceOnUse"
       gradientTransform="matrix(-4.016195e-2,0,0,3.2942602e-2,30.204018,40.921317)" />
    <linearGradient
       id="linearGradient3390">
      <stop
         id="stop3392"
         style="stop-color:#425e7b;stop-opacity:1"
         offset="0" />
      <stop
         id="stop3394"
         style="stop-color:#7a91a7;stop-opacity:1"
         offset="1" />
    </linearGradient>
    <linearGradient
       x1="34.954498"
       y1="45.114197"
       x2="25.474075"
       y2="20.980713"
       id="linearGradient2667"
       xlink:href="#linearGradient3390"
       gradientUnits="userSpaceOnUse"
       gradientTransform="matrix(1.3300009,0,0,1.33,6.6873798e-2,-1.6618835)" />
    <linearGradient
       id="linearGradient7012-661-145-733-759-865-745">
      <stop
         id="stop2699"
         style="stop-color:#9cbbd9;stop-opacity:1"
         offset="0" />
      <stop
         id="stop2701"
         style="stop-color:#5c82ab;stop-opacity:1"
         offset="1" />
    </linearGradient>
    <radialGradient
       cx="13.857143"
       cy="19.54422"
       r="24.097353"
       fx="13.857143"
       fy="19.54422"
       id="radialGradient2665"
       xlink:href="#linearGradient7012-661-145-733-759-865-745"
       gradientUnits="userSpaceOnUse"
       gradientTransform="matrix(1.9790569,0,0,1.0523761,-8.9271881,12.730247)" />
    <linearGradient
       id="linearGradient6129-963-697-142-998">
      <stop
         id="stop4661"
         style="stop-color:#000000;stop-opacity:0.498"
         offset="0" />
      <stop
         id="stop4663"
         style="stop-color:#000000;stop-opacity:0"
         offset="1" />
    </linearGradient>
    <linearGradient
       x1="22.934725"
       y1="49.629246"
       x2="22.809399"
       y2="36.657963"
       id="linearGradient2662"
       xlink:href="#linearGradient6129-963-697-142-998"
       gradientUnits="userSpaceOnUse"
       gradientTransform="matrix(1.5224421,0,0,1.0834583,-4.5386374,10.421775)" />
    <linearGradient
       id="linearGradient8265-821-176-38-919">
      <stop
         id="stop4667"
         style="stop-color:#ffffff;stop-opacity:1"
         offset="0" />
      <stop
         id="stop4669"
         style="stop-color:#ffffff;stop-opacity:0"
         offset="1" />
    </linearGradient>
    <linearGradient
       x1="13.079692"
       y1="20.730078"
       x2="16.36186"
       y2="32.979298"
       id="linearGradient2659"
       xlink:href="#linearGradient8265-821-176-38-919"
       gradientUnits="userSpaceOnUse"
       gradientTransform="matrix(1.5224421,0,0,1.0694461,-4.5386374,11.431539)" />
    <linearGradient
       id="linearGradient6087-437-184-795-110">
      <stop
         id="stop4655"
         style="stop-color:#ffffff;stop-opacity:1"
         offset="0" />
      <stop
         id="stop4657"
         style="stop-color:#ffffff;stop-opacity:0"
         offset="1" />
    </linearGradient>
    <radialGradient
       cx="7.2646537"
       cy="8.3021259"
       r="20.979567"
       fx="7.2646537"
       fy="8.3021259"
       id="radialGradient2656"
       xlink:href="#linearGradient6087-437-184-795-110"
       gradientUnits="userSpaceOnUse"
       gradientTransform="matrix(0,1.3117367,-2.1641299,0,35.145782,18.304585)" />
  </defs>
  <g
     id="layer1">
    <path
       d="M 58,52.999928 C 58,52.999928 58,60.999835 58,60.999835 C 60.068242,61.014894 63,59.20746 63,56.999367 C 63,54.791272 60.691999,52.999928 58,52.999928 z"
       id="path3411"
       style="opacity:0.3;fill:url(#radialGradient2653);fill-opacity:1;fill-rule:nonzero;stroke:none;stroke-width:1;marker:none;visibility:visible;display:inline;overflow:visible" />
    <path
       d="M 8,9.5001644 C 7.0849896,9.5103921 6.5,9.9563421 6.5,10.83345 L 6.5,13.5 C 6.5,13.5 4.994002,13.5 4.994002,13.5 C 3.999085,13.5 3.5,13.973582 3.5,14.842172 C 3.5456145,28.561749 3.5,30.499999 3.5,30.499999 C 3.5,30.499999 60.499998,29.5 60.499998,29.5 L 60.499998,15 C 60.499998,13.999931 60.000052,13.5 59,13.5 L 28.64966,13.5 L 28.5,10.83345 C 28.5,9.9563421 28.275474,9.4899354 27.360464,9.5001644 L 8,9.5001644 z"
       id="path2558"
       style="fill:url(#linearGradient2648);fill-opacity:1;fill-rule:nonzero;stroke:url(#radialGradient2650);stroke-width:0.99999994;stroke-linecap:round;stroke-linejoin:round;marker:none;marker-start:none;marker-mid:none;marker-end:none;stroke-miterlimit:4;stroke-dasharray:none;stroke-dashoffset:0;stroke-opacity:1;visibility:visible;display:inline;overflow:visible;enable-background:accumulate" />
    <rect
       width="52"
       height="8"
       x="6"
       y="53"
       id="rect4173"
       style="opacity:0.3;fill:url(#linearGradient2645);fill-opacity:1;fill-rule:nonzero;stroke:none;stroke-width:1;marker:none;visibility:visible;display:inline;overflow:visible" />
    <path
       d="M 6,52.999928 C 6,52.999928 6,60.999835 6,60.999835 C 3.9317585,61.014894 1,59.20746 1,56.999367 C 1,54.791272 3.308001,52.999928 6,52.999928 z"
       id="path5018"
       style="opacity:0.3;fill:url(#radialGradient2642);fill-opacity:1;fill-rule:nonzero;stroke:none;stroke-width:1;marker:none;visibility:visible;display:inline;overflow:visible" />
    <path
       d="M 1.4837942,27.633 C 0.057092971,27.76732 0.81949471,28.634481 0.70574372,29.415127 C 1.1053571,31.033696 3.3343868,55.262171 3.6041482,57.008048 C 4.0587904,58.05669 5.7247468,57.519679 6.7803459,57.652799 C 24.327771,57.652799 41.875198,57.652799 59.422623,57.652799 C 60.871499,57.536982 60.269112,56.124202 60.472929,55.315663 C 60.555478,54.139215 62.742663,36.412039 63.371396,28.423 C 63.037337,27.38674 61.392691,27.633 60.361604,27.633 C 41.622719,27.633 20.22268,27.633 1.4837942,27.633 L 1.4837942,27.633 z"
       id="path7314"
       style="fill:url(#radialGradient2665);fill-opacity:1;stroke:url(#linearGradient2667);stroke-width:1;stroke-linecap:round;stroke-linejoin:round;stroke-miterlimit:4;stroke-dasharray:none;stroke-dashoffset:0;stroke-opacity:1" />
    <path
       d="M 1.4784742,26.67365 L 62.521526,26.674089 C 63.364959,26.674089 63.911376,27.156891 63.911376,27.757126 L 60.926372,57.010483 C 60.926372,57.610719 60.247364,58.093941 59.403933,58.093941 L 4.5960123,58.093941 C 3.7525789,58.093941 3.0735696,57.610719 3.0735696,57.010483 L 0.088623303,27.757109 C 0.088623303,27.156872 0.63504087,26.67365 1.4784742,26.67365 L 1.4784742,26.67365 z"
       id="path2541"
       style="opacity:0.4;fill:url(#linearGradient2662);fill-opacity:1;stroke:none" />
    <path
       d="M 1.4784742,27.067696 L 62.521526,27.067696 C 63.364959,27.067696 63.911376,27.950692 63.911376,28.543167 L 63.299576,36.527044 L 0.99834392,44.279 L 0.088623303,28.542674 C 0.088623303,27.950201 0.63504087,27.067696 1.4784742,27.067696 L 1.4784742,27.067696 z"
       id="path8263"
       style="opacity:0.3;fill:url(#linearGradient2659);fill-opacity:1;stroke:none" />
    <path
       d="M 62.316394,28.463 C 44.31982,28.463 19.562969,28.463 1.566394,28.463 C 1.8592389,29.650909 4.6295257,54.550933 5.0322499,56.508"
       id="path2544"
       style="opacity:0.4;fill:none;stroke:url(#radialGradient2656);stroke-width:1;stroke-linecap:round;stroke-linejoin:round;stroke-miterlimit:4;stroke-dasharray:none;stroke-opacity:1" />
  </g>
</svg>
